X: 6
T: Ragtime Annie
S: Lee Owens and Viola Ruth "American Square Dances of the West and Southwest"
S: Lee Owens and Viola Ruth "Advanced Square Dances of the West and Southwest" p.138
R: reel
Z: 2010 John Chambers <jc:trillian.mit.edu>
M: 2/4
L: 1/16
K: D
"(Rocking bow)"((3DEF) |\
"D"[AF][AF][BF][BF] [AF][AF]"D7"[BF][BF] |\
[AF][AF][BF][BF] [A2F2]((3DEF) |\
[AF][AF][BF][BF] [AF][AF]"D7"[BF][BF] |
"A"[AF][c2G2][cG] [c2G2][c2G2] |\
[AG][BG][cG][AG] [BG][cG][AG][BG] |\
[cG][A2G2][BG] c3B |\
[AF]Bcd egfe |
[1 "D"dcdB "A"A2 :|[2 "D"d6 |: (fg) |\
"D"a6 (fd) | [A6F6] (fg) | a4 g4 | [B6G6] "G"(ef) |
gfef gfef | gfed c4 | [cG][cG][cG][cG] [BG][BG][BG][BG] |\
"D"[A6F6] (fg) | a6 (fd) |
[A6F6] (fg) | a4 g4 | "G"[B8G8] | bb2b b2g2 |\
"D"f[a2d2]a a2a2 | "A"ABcd egfe | "D"[d4F4] [d2F2] |]

%%sep 2 1 500

